src/assets/svg/success.svg

<?xml version="1.0" encoding="UTF-8"?>
<svg width="24px" height="24px" viewBox="0 0 24 24" version="1.1" xmlns="http://www.w3.org/2000/svg" xmlns:xlink="http://www.w3.org/1999/xlink">
    <title>C239A381-0E15-403D-9514-3C2CABA101F1@2.00x</title>
    <g id="Iconography" stroke="none" stroke-width="1" fill="none" fill-rule="evenodd">
        <g transform="translate(-128.000000, -624.000000)" id="Group">
            <g transform="translate(128.000000, 624.000000)" id="Path">
                <path d="M24,12 C24,18.6274355 18.6274355,24 12,24 C5.37256452,24 0,18.6274355 0,12 C0,5.37256452 5.37256452,0 12,0 C18.6274355,0 24,5.37256452 24,12 Z" fill="#1FA75D"></path>
                <path d="M17.9107183,6.3741829 C18.3922794,5.87233008 19.169818,5.87572034 19.6473993,6.38175527 C20.0510454,6.80945004 20.1144818,7.46554389 19.8048418,7.98724799 L19.7196404,8.11466428 L19.6401931,8.20669746 L9.63883765,18.629483 C9.23417997,19.0511918 8.61419942,19.119818 8.11828154,18.799867 L7.99708311,18.7117633 L7.9093628,18.629483 L3.36329212,13.8918532 C2.88173098,13.3900004 2.87850468,12.5729459 3.35608598,12.066911 C3.75973208,11.6392162 4.38354677,11.5671135 4.88257175,11.8881493 L5.00452859,11.9766204 L5.09274637,12.0593172 L8.77325001,15.8939037 L17.9107183,6.3741829 Z" fill="#FFFFFF" fill-rule="nonzero"></path>
            </g>
        </g>
    </g>
</svg>

<svg width="24" height="24" xmlns="http://www.w3.org/2000/svg"><g fill="none" fill-rule="evenodd"><path d="M24 12c0 6.627-5.373 12-12 12S0 18.627 0 12 5.373 0 12 0s12 5.373 12 12z" fill="#1FA75D"/><path d="M17.91 6.374a1.186 1.186 0 011.737.008c.404.427.467 1.084.158 1.605l-.085.128-.08.092L9.64 18.629a1.184 1.184 0 01-1.52.17l-.122-.087-.088-.083-4.546-4.737a1.337 1.337 0 01-.007-1.825 1.185 1.185 0 011.527-.179l.122.089.088.082 3.68 3.835 9.138-9.52z" /></g></svg>
